build/documents/PDFOutline.svg

<svg xmlns="http://www.w3.org/2000/svg" fill="none" viewBox="0 0 24 24" focusable="false"><path d="M0 0H24V24H0z"/><path fill="#74767B" fill-rule="evenodd" d="M17.65 3.35004C19.3069 3.35004 20.65 4.69318 20.65 6.35004L20.65 16.35C20.65 18.0069 19.3069 19.35 17.65 19.35L9.65 19.35C7.99314 19.35 6.65 18.0069 6.65 16.35L6.65 6.35004C6.65 4.69318 7.99314 3.35004 9.65 3.35004L17.65 3.35004ZM9.65 4.65004L17.65 4.65004C18.5889 4.65004 19.35 5.41115 19.35 6.35004L19.35 16.35C19.35 17.2889 18.5889 18.05 17.65 18.05L9.65 18.05C8.71112 18.05 7.95 17.2889 7.95 16.35L7.95 6.35004C7.95 5.41115 8.71112 4.65004 9.65 4.65004ZM12.1364 11.6361C12.2147 11.2971 12.3094 10.8602 12.393 10.3926C12.0723 10.0559 11.7174 9.67848 11.4374 9.30424C11.1566 8.92895 10.8557 8.4366 10.845 7.90631C10.8391 7.61545 10.9209 7.32643 11.1113 7.07074C11.2941 6.82526 11.5505 6.64578 11.8409 6.51201C12.1376 6.37539 12.4698 6.29449 12.8056 6.36437C13.1626 6.43867 13.4155 6.66018 13.5765 6.91581C13.8613 7.36792 13.9109 8.00481 13.9031 8.55031C13.8966 8.99747 13.8474 9.48738 13.7788 9.96553C14.2162 10.5557 14.6155 11.0987 15.0741 11.6764C16.4068 11.4597 17.4234 11.7238 18.016 12.3121C18.3973 12.6907 18.5933 13.2151 18.4672 13.741C18.3395 14.2731 17.9191 14.6563 17.3767 14.824C16.841 14.9896 16.3428 14.8116 15.9613 14.5719C15.5798 14.3322 15.2265 13.9783 14.9151 13.6147C14.7856 13.4635 14.656 13.3014 14.5284 13.1344C13.997 13.2923 13.4728 13.4785 12.947 13.6538C12.8702 13.9055 12.7893 14.1518 12.7046 14.3867C12.5664 14.7706 12.4137 15.1366 12.2466 15.4506C12.0849 15.7544 11.8849 16.0575 11.6343 16.2715C10.9892 16.8225 10.1421 16.5831 9.67005 16.2226C9.41173 16.0253 9.18227 15.7415 9.07548 15.3871C8.96399 15.0171 8.9995 14.609 9.21804 14.228C9.52847 13.6867 10.0291 13.3703 10.7266 13.0738C11.0414 12.94 11.4239 12.7995 11.8856 12.6403C11.9764 12.3048 12.0604 11.9651 12.1364 11.6361ZM12.6032 8.53161C12.6025 8.58057 12.6012 8.63029 12.5993 8.68066C12.5571 8.62843 12.5167 8.57669 12.4783 8.52546C12.2185 8.17817 12.1466 7.9717 12.1447 7.88011C12.1443 7.86011 12.1465 7.85725 12.1539 7.84722C12.1691 7.82688 12.2249 7.76642 12.3847 7.69279C12.4339 7.67016 12.4712 7.65705 12.4979 7.64945C12.5552 7.77745 12.61 8.05896 12.6032 8.53161ZM4.65 8.70004C4.29101 8.70004 4 8.99105 4 9.35004L4 18.75C4 20.545 5.45507 22 7.25 22L15.65 22C16.009 22 16.3 21.709 16.3 21.35C16.3 20.9911 16.009 20.7 15.65 20.7L7.25 20.7C6.17304 20.7 5.3 19.827 5.3 18.75L5.3 9.35004C5.3 8.99105 5.00898 8.70004 4.65 8.70004ZM13.3509 12.1506C13.39 11.9868 13.426 11.8313 13.4676 11.6433C13.5502 11.7612 13.6389 11.8896 13.7324 12.0246C13.6033 12.0673 13.4778 12.1087 13.3559 12.1489L13.3509 12.1506ZM16.6529 13.4712C16.4655 13.3534 16.252 13.1602 16.018 12.9006C16.6176 12.9139 16.958 13.0937 17.1001 13.2347C17.2197 13.3534 17.2048 13.4301 17.203 13.4379C17.2022 13.4412 17.1839 13.5229 16.9927 13.582C16.965 13.5906 16.8708 13.608 16.6529 13.4712ZM11.2352 14.2702C11.2826 14.25 11.3318 14.2297 11.3829 14.209C11.2887 14.4495 11.1936 14.6621 11.099 14.8398C10.9658 15.09 10.8575 15.2254 10.79 15.283C10.79 15.283 10.7719 15.3005 10.7079 15.2945C10.637 15.2879 10.5435 15.2539 10.4592 15.1895C10.3748 15.1251 10.3337 15.0569 10.3202 15.012C10.3114 14.9827 10.3058 14.9443 10.3457 14.8748C10.4416 14.7076 10.6178 14.5327 11.2352 14.2702Z"/></svg>

<svg xmlns="http://www.w3.org/2000/svg" fill="none" viewBox="0 0 24 24" focusable="false"><path fill="#74767B" fill-rule="evenodd" d="M20.64 6.35c0-1.66-1.34-3-3-3h-8c-1.65 0-3 1.34-3 3v10c0 1.65 1.35 3 3 3h8c1.66 0 3-1.35 3-3zm-3-1.7h-8c-.93 0-1.7.76-1.7 1.7v10c0 .93.77 1.69 1.7 1.69h8c.94 0 1.71-.76 1.71-1.69v-10c0-.94-.77-1.7-1.71-1.7m-5.51 6.98c.08-.34.17-.77.26-1.24-.32-.34-.68-.72-.96-1.09-.28-.38-.58-.87-.59-1.4-.01-.29.08-.58.27-.83.18-.25.44-.43.73-.56.29-.14.62-.22.96-.15.36.07.61.3.77.55.29.45.34 1.09.33 1.64-.01.44-.06.93-.13 1.41.44.59.84 1.13 1.3 1.71 1.33-.22 2.35.05 2.94.64.38.38.58.9.45 1.43s-.55.91-1.09 1.08c-.53.16-1.03-.01-1.41-.25-.39-.24-.74-.6-1.05-.96q-.195-.225-.39-.48c-.53.16-1.05.34-1.58.52-.07.25-.16.5-.24.73-.14.39-.29.75-.46 1.07-.16.3-.36.6-.61.82-.65.55-1.49.31-1.96-.05-.26-.2-.49-.48-.6-.84-.11-.37-.08-.78.14-1.16.31-.54.81-.85 1.51-1.15.32-.14.7-.28 1.16-.43.09-.34.18-.68.25-1.01m.47-3.1c0 .05 0 .1-.01.15-.04-.06-.08-.11-.12-.16-.26-.35-.33-.55-.33-.64 0-.02 0-.03.01-.04.01-.02.07-.08.23-.15.05-.02.09-.04.11-.05.06.13.12.41.11.89m-7.96.17c-.35 0-.64.29-.64.65v9.4A3.25 3.25 0 0 0 7.25 22h8.39c.36 0 .65-.3.65-.65 0-.36-.29-.65-.65-.65H7.25c-1.08 0-1.95-.88-1.95-1.95v-9.4c0-.36-.3-.65-.66-.65m8.71 3.45c.03-.17.07-.32.11-.51.09.12.17.24.27.38-.13.04-.26.08-.38.12zm3.3 1.32c-.19-.12-.4-.31-.64-.57.6.01.94.19 1.09.33.11.12.1.2.1.2 0 .01-.02.09-.21.15-.03.01-.12.02-.34-.11m-5.42.8c.05-.02.1-.05.15-.07-.1.24-.19.46-.29.63-.13.26-.24.39-.3.45 0 0-.02.02-.09.01a.53.53 0 0 1-.25-.11.35.35 0 0 1-.13-.17c-.01-.03-.02-.07.02-.14.1-.17.27-.34.89-.6"/></svg>
